src/resources/assets/close.svg

<svg xmlns="http://www.w3.org/2000/svg" width="16" height="16"><path d="M 2.589844 2.714844 L 2.644531 2.644531 C 2.820312 2.472656 3.089844 2.453125 3.285156 2.589844 L 3.355469 2.644531 L 8 7.292969 L 12.644531 2.644531 C 12.839844 2.453125 13.160156 2.453125 13.355469 2.644531 C 13.546875 2.839844 13.546875 3.160156 13.355469 3.355469 L 8.707031 8 L 13.355469 12.644531 C 13.527344 12.820312 13.546875 13.089844 13.410156 13.285156 L 13.355469 13.355469 C 13.179688 13.527344 12.910156 13.546875 12.714844 13.410156 L 12.644531 13.355469 L 8 8.707031 L 3.355469 13.355469 C 3.160156 13.546875 2.839844 13.546875 2.644531 13.355469 C 2.453125 13.160156 2.453125 12.839844 2.644531 12.644531 L 7.292969 8 L 2.644531 3.355469 C 2.472656 3.179688 2.453125 2.910156 2.589844 2.714844 L 2.644531 2.644531 Z M 2.589844 2.714844" fill="#ddd"/></svg>

<svg xmlns="http://www.w3.org/2000/svg" width="16" height="16"><path d="M2.59 2.715l.055-.07a.504.504 0 01.64-.055l.07.055L8 7.293l4.645-4.648a.512.512 0 01.71 0 .512.512 0 010 .71L8.707 8l4.648 4.645a.504.504 0 01.055.64l-.055.07a.504.504 0 01-.64.055l-.07-.055L8 8.707l-4.645 4.648a.512.512 0 01-.71 0 .512.512 0 010-.71L7.293 8 2.645 3.355a.504.504 0 01-.055-.64l.055-.07zm0 0" fill="#ddd"/></svg>
